packages/ffe-icons/icons/open/400/sm/keyboard_onscreen.svg

<svg xmlns="http://www.w3.org/2000/svg" height="20" viewBox="0 -960 960 960" width="20"><path d="M371.96-312h215.757Q603-312 613.5-322.289q10.5-10.29 10.5-25.5Q624-363 613.662-373.5 603.323-384 588.04-384H372.283Q357-384 346.5-373.711q-10.5 10.29-10.5 25.5Q336-333 346.338-322.5 356.677-312 371.96-312ZM168-192q-29.7 0-50.85-21.162Q96-234.324 96-264.04v-432.243Q96-726 117.15-747T168-768h624q29.7 0 50.85 21.162Q864-725.676 864-695.96v432.243Q864-234 842.85-213T792-192H168Zm0-432h624v-72H168v72Zm0 360h624v-288H168v288Zm0 0v-288 288Zm83.789-168Q267-432 277.5-442.289q10.5-10.29 10.5-25.5Q288-483 277.711-493.5q-10.29-10.5-25.5-10.5Q237-504 226.5-493.711q-10.5 10.29-10.5 25.5Q216-453 226.289-442.5q10.29 10.5 25.5 10.5Zm114 0Q381-432 391.5-442.289q10.5-10.29 10.5-25.5Q402-483 391.711-493.5q-10.29-10.5-25.5-10.5Q351-504 340.5-493.711q-10.5 10.29-10.5 25.5Q330-453 340.289-442.5q10.29 10.5 25.5 10.5Zm114 0Q495-432 505.5-442.289q10.5-10.29 10.5-25.5Q516-483 505.711-493.5q-10.29-10.5-25.5-10.5Q465-504 454.5-493.711q-10.5 10.29-10.5 25.5Q444-453 454.289-442.5q10.29 10.5 25.5 10.5Zm114 0Q609-432 619.5-442.289q10.5-10.29 10.5-25.5Q630-483 619.711-493.5q-10.29-10.5-25.5-10.5Q579-504 568.5-493.711q-10.5 10.29-10.5 25.5Q558-453 568.289-442.5q10.29 10.5 25.5 10.5Zm114 0Q723-432 733.5-442.289q10.5-10.29 10.5-25.5Q744-483 733.711-493.5q-10.29-10.5-25.5-10.5Q693-504 682.5-493.711q-10.5 10.29-10.5 25.5Q672-453 682.289-442.5q10.29 10.5 25.5 10.5Z"/></svg>

<svg xmlns="http://www.w3.org/2000/svg" height="20" viewBox="0 -960 960 960" width="20"><path d="M371.96-312h215.76q15.28 0 25.78-10.29 10.5-10.29 10.5-25.5t-10.34-25.71Q603.32-384 588.04-384H372.28q-15.28 0-25.78 10.29-10.5 10.29-10.5 25.5t10.34 25.71q10.34 10.5 25.62 10.5ZM168-192q-29.7 0-50.85-21.16Q96-234.32 96-264.04v-432.24Q96-726 117.15-747T168-768h624q29.7 0 50.85 21.16Q864-725.68 864-695.96v432.24Q864-234 842.85-213T792-192H168Zm0-432h624v-72H168v72Zm0 360h624v-288H168v288Zm0 0v-288 288Zm83.79-168q15.21 0 25.71-10.29t10.5-25.5q0-15.21-10.29-25.71t-25.5-10.5q-15.21 0-25.71 10.29t-10.5 25.5q0 15.21 10.29 25.71t25.5 10.5Zm114 0q15.21 0 25.71-10.29t10.5-25.5q0-15.21-10.29-25.71t-25.5-10.5q-15.21 0-25.71 10.29t-10.5 25.5q0 15.21 10.29 25.71t25.5 10.5Zm114 0q15.21 0 25.71-10.29t10.5-25.5q0-15.21-10.29-25.71t-25.5-10.5q-15.21 0-25.71 10.29t-10.5 25.5q0 15.21 10.29 25.71t25.5 10.5Zm114 0q15.21 0 25.71-10.29t10.5-25.5q0-15.21-10.29-25.71t-25.5-10.5q-15.21 0-25.71 10.29t-10.5 25.5q0 15.21 10.29 25.71t25.5 10.5Zm114 0q15.21 0 25.71-10.29t10.5-25.5q0-15.21-10.29-25.71t-25.5-10.5q-15.21 0-25.71 10.29t-10.5 25.5q0 15.21 10.29 25.71t25.5 10.5Z"/></svg>
